!!!OTL: Die Luetzelburg.
!!!OTL-incipit: DU EDLER GRAF VON LUETZELBURG
!!!ARE: Europa, Mitteleuropa, Deutschland
!!!SCT: Z1007
!!!TXL: @@DE
!!!YEM: Copyright 1995, estate of Helmut Schaffrath.
**kern	**text
*ICvox	*
*M3/8	*
*k[b-e-]	*
*B-:	*
!LO:TX:a:t=Vorſänger.	!
!LO:TX:a:t=(Ʒur Meluſina-Sage, an die ſich die Geſchichte des Luremburgiſchen Hauſes knüpft.)	!
{8f	Du
=1	=1
4b-	ed-
8b-	-ler
=2	=2
8ccL	Graf
8b-J	.
8a	von
=3	=3
8b-L	Lü-
8aJ	.
8g	-tʒel-
=4	=4
4f}	-burg,
{(16ccL	was
16ee-J)	.
=5	=5
8ddL	reiſt
8ccJ	.
(16ddL	ſo
16ccJ)	.
=6	=6
8.b-L	ſpät
16ddJ	.
(16ccL	den
16fJ)	.
=7	=7
8fL	Forſt
8b-J	.
8a	hin-
=8	=8
4b-/}	-durch?
{(16b-L	willſt
16ddJ)	.
=9	=9
4ee-	ra-
8dd	-ſten
=10	=10
8ccL	nicht
8b-J	.
8cc	an
=11	=11
4dd	mei-
8cc	-nem
=12	=12
4b-}	Born?
{8b-	ein-
=13	=13
8ccL	-keh-
8ddJ	.
8cc	-ren
=14	=14
8b-L	nicht
8gJ	.
8cc	in
=15	=15
8.b-L	mein
16ccJ	.
16b-L	ſchön
16aJ	.
=16	=16
4g}	Schloß?
!LO:TX:a:t=Alle.	!
{16ccL	Jm
16fJ	.
=17	=17
4b-/	Wal-
8a	-de
=18	=18
8b-/L	fließt
8ccJ	.
8dd/	ein
=19	=19
8cc/L	Börn-
8b-J	.
8a	-lein
=20	=20
4b-/}	klar!
==	==
!!!AGN: Romanze, Ballade, Melusina - Sage
!!!ONB: ESAC (Essen Associative Code) Database: ZUCCAL
!!!AMT: simple triple
!!!AIN: vox
!!!EED: Helmut Schaffrath
!!!EEV: 1.0
!!@@COMMENT:"In original three voices"
!!@@END:
!!!GTL: I. Volks- Leuschen.
!!!URL-scan: https://www.digitale-sammlungen.de/de/view/bsb11160573?page=30
!!!ENC: Anna Maria Matuszewska
!!!EEV: 2025/01/31
*-	*-
